svgs/sharp-solid/horse-saddle.svg

<svg xmlns="http://www.w3.org/2000/svg" viewBox="0 0 576 512"><!--! Font Awesome Pro 6.6.0 by @fontawesome - https://fontawesome.com License - https://fontawesome.com/license (Commercial License) Copyright 2024 Fonticons, Inc. --><path d="M448 160l0 78.1 0 1.9s0 0 0 0c-.5 30-12.8 56.4-32 75.7L416 512l-96 0 0-165.3c-4.1-.7-8.2-1.6-12.3-2.8L256 329.1l0-73.1 48 0 16 0 0-16 0-112C320 57.3 377.3 0 448 0l32 0 80 0 16 0 0 32-16 0-16 0 32 32 0 128-80 32-32-64-16 0zM224 256l0 64 0 8 0 8 0 19.9-14.1 14.1-27 27 38.3 115-101.2 0L82.5 399.2 73.1 371l21-21 26.6-26.6L78.2 259.9c-7.3-11-11.9-23.4-13.6-36.4C54.6 230.8 48 242.6 48 256l0 56 0 24L0 336l0-24 0-56c0-44.6 33.2-81.5 76.3-87.2c11.4-18.7 29.9-32.7 51.7-38.2L128 240l0 16 16 0 80 0zm-64-32l0-96 43.2 0 52.8 0 32 0 0 96-128 0zM512 80a16 16 0 1 0 -32 0 16 16 0 1 0 32 0z"/></svg>

<svg xmlns="http://www.w3.org/2000/svg" viewBox="0 0 576 512"><!--! Font Awesome Pro 6.4.2 by @fontawesome - https://fontawesome.com License - https://fontawesome.com/license (Commercial License) Copyright 2023 Fonticons, Inc. --><path d="M448 160v78.1V240h0c-.5 30-12.8 56.4-32 75.7V512H320V346.7c-4.1-.7-8.2-1.6-12.3-2.8L256 329.1V256h48 16V240 128C320 57.3 377.3 0 448 0h32 80 16V32H560 544l32 32V192l-80 32-32-64H448zM224 256v64 8 8 19.9l-14.1 14.1-27 27 38.3 115H120.1L82.5 399.2 73.1 371l21-21 26.6-26.6L78.2 259.9c-7.3-11-11.9-23.4-13.6-36.4C54.6 230.8 48 242.6 48 256v56 24H0V312 256c0-44.6 33.2-81.5 76.3-87.2c11.4-18.7 29.9-32.7 51.7-38.2V240v16h16 80zm-64-32V128h43.2H256h32v96H160zM512 80a16 16 0 1 0 -32 0 16 16 0 1 0 32 0z"/></svg>
